src/assets/icons/mui.svg

<svg width="50" height="50" viewBox="0 0 50 50" fill="none" xmlns="http://www.w3.org/2000/svg">
<path d="M0 26.7281V5.07812L18.75 15.9031V23.1198L6.25 15.9031V30.3365L0 26.7281Z" fill="#00B0FF"/>
<path d="M18.75 15.9031L37.5 5.07812V26.7281L25 33.9448L18.75 30.3365L31.25 23.1198V15.9031L18.75 23.1198V15.9031Z" fill="#0081CB"/>
<path d="M18.75 30.3364V37.5531L31.25 44.7698V37.5531L18.75 30.3364Z" fill="#00B0FF"/>
<path d="M31.25 44.7698L50 33.9448V19.5115L43.75 23.1198V30.3365L31.25 37.5531V44.7698ZM43.75 15.9031V8.68646L50 5.07812V12.2948L43.75 15.9031Z" fill="#0081CB"/>
</svg>

<svg xmlns="http://www.w3.org/2000/svg" width="50" height="50" fill="none"><path fill="#00B0FF" d="M0 26.728V5.078l18.75 10.825v7.217l-12.5-7.217v14.434L0 26.727Z"/><path fill="#0081CB" d="M18.75 15.903 37.5 5.078v21.65L25 33.945l-6.25-3.608 12.5-7.217v-7.217l-12.5 7.217v-7.217Z"/><path fill="#00B0FF" d="M18.75 30.336v7.217l12.5 7.217v-7.217l-12.5-7.217Z"/><path fill="#0081CB" d="M31.25 44.77 50 33.945V19.512l-6.25 3.608v7.216l-12.5 7.217v7.217Zm12.5-28.867V8.686L50 5.078v7.217l-6.25 3.608Z"/></svg>
